X: 3
T: The Kerry Cow
R: polka
M: 2/4
L: 1/8
K: Dmaj
|: A>B AG | F A d>d | EF GF | EF G ^G |
A>B AG | F A d>d | cA GE | D2 D2 :|
|: d>e fd | cA A>A | BG G/A/B/G/ | BA A2 |
d>e fd | ca a>a | ba ge | d2 d2 :|


Tune 2379	Setting 15726

